icons/CurrencyEuroCircle_filled.svg

<svg width="24" height="24" viewBox="0 0 24 24" fill="none" xmlns="http://www.w3.org/2000/svg">
<path fill-rule="evenodd" clip-rule="evenodd" d="M21.75,12.25c0,5.3848 -4.3652,9.75 -9.75,9.75c-5.38478,0 -9.75,-4.3652 -9.75,-9.75c0,-5.38479 4.36522,-9.75002 9.75,-9.75002c5.3848,0 9.75,4.36523 9.75,9.75002zM14.1654,8.13558c-0.6139,-0.29849 -1.2908,-0.42794 -1.9678,-0.37344c-0.6769,0.05449 -1.3262,0.2906 -1.8887,0.68175c-0.56211,0.39086 -1.01848,0.92302 -1.3323,1.54353c-0.20082,0.39708 -0.33982,0.82338 -0.41387,1.26258h-0.26268c-0.41421,0 -0.75,0.3358 -0.75,0.75c0,0.4142 0.33579,0.75 0.75,0.75h0.26268c0.07405,0.4391 0.21305,0.8655 0.41387,1.2625c0.31382,0.6206 0.77019,1.1527 1.3323,1.5436c0.5625,0.3911 1.2118,0.6272 1.8887,0.6817c0.677,0.0545 1.3539,-0.0749 1.9678,-0.3734c0.3725,-0.1811 0.5276,-0.63 0.3465,-1.0025c-0.1811,-0.3725 -0.6299,-0.5276 -1.0024,-0.3465c-0.3762,0.1829 -0.7854,0.26 -1.1916,0.2273c-0.4063,-0.0327 -0.8027,-0.1748 -1.1527,-0.4182c-0.3504,-0.2436 -0.6443,-0.5821 -0.85,-0.9889c-0.0939,-0.1857 -0.1677,-0.3822 -0.2203,-0.5856h1.6551c0.4143,0 0.75,-0.3358 0.75,-0.75c0,-0.4142 -0.3357,-0.75 -0.75,-0.75h-1.6551c0.0526,-0.2034 0.1264,-0.4 0.2203,-0.5856c0.2057,-0.4068 0.4996,-0.74531 0.85,-0.98898c0.35,-0.24338 0.7464,-0.38541 1.1527,-0.41812c0.4062,-0.03269 0.8154,0.04438 1.1916,0.22726c0.3725,0.18114 0.8213,0.02599 1.0024,-0.34652c0.1811,-0.37251 0.026,-0.82132 -0.3465,-1.00246z" fill="#002B51"/>
</svg>

<svg width="24" height="24" viewBox="0 0 24 24" fill="none" xmlns="http://www.w3.org/2000/svg">
<path fill-rule="evenodd" clip-rule="evenodd" d="M12 2.49998C6.61522 2.49998 2.25 6.86521 2.25 12.25C2.25 17.6348 6.61522 22 12 22C17.3848 22 21.75 17.6348 21.75 12.25C21.75 6.86521 17.3848 2.49998 12 2.49998ZM14.1654 8.13558C13.5515 7.83709 12.8746 7.70764 12.1976 7.76214C11.5207 7.81663 10.8714 8.05274 10.3089 8.44389C9.74679 8.83475 9.29042 9.36691 8.9766 9.98742C8.77578 10.3845 8.63678 10.8108 8.56273 11.25H8.30005C7.88584 11.25 7.55005 11.5858 7.55005 12C7.55005 12.4142 7.88584 12.75 8.30005 12.75H8.56273C8.63678 13.1891 8.77578 13.6155 8.9766 14.0125C9.29042 14.6331 9.74679 15.1652 10.3089 15.5561C10.8714 15.9472 11.5207 16.1833 12.1976 16.2378C12.8746 16.2923 13.5515 16.1629 14.1654 15.8644C14.5379 15.6833 14.693 15.2344 14.5119 14.8619C14.3308 14.4894 13.882 14.3343 13.5095 14.5154C13.1333 14.6983 12.7241 14.7754 12.3179 14.7427C11.9116 14.71 11.5152 14.5679 11.1652 14.3245C10.8148 14.0809 10.5209 13.7424 10.3152 13.3356C10.2213 13.1499 10.1475 12.9534 10.0949 12.75H11.75C12.1643 12.75 12.5 12.4142 12.5 12C12.5 11.5858 12.1643 11.25 11.75 11.25H10.0949C10.1475 11.0466 10.2213 10.85 10.3152 10.6644C10.5209 10.2576 10.8148 9.91909 11.1652 9.67542C11.5152 9.43204 11.9116 9.29001 12.3179 9.2573C12.7241 9.22461 13.1333 9.30168 13.5095 9.48456C13.882 9.6657 14.3308 9.51055 14.5119 9.13804C14.693 8.76553 14.5379 8.31672 14.1654 8.13558Z" fill="#002B51"/>
</svg>
